X:64
T:Reel 64
M:4/4
K:Gmaj
L:1/8
G>F (3FEF GBAF|G>F (3EED d2Bd|GFED ADBc|A>D (3DED A2Bc|A>D (3DED A>D (3AFD |GBdG e2dc| (3Bcd eg fagf| (3efe dB eAFA|B>E (3FED E>F (3AFA |ADEF G>A (3BAB |e>B (3cBA B>G (3AFE |ADEF GABc| (3BcB AG FE (3EDE |GFGB D2EG|A>D (3FED A>B (3cBA |GEDE G2ge||fdag fedf| (3efe dc BGBd|f>g (3fgf g2fd|eA (3AAA e>A (3ABc | (3def gf edBg| (3Bcd ef g2
